icons/laptop.svg

<?xml version="1.0" encoding="UTF-8"?>
<svg width="50" height="50" version="1.1" viewBox="0 0 50 50" xmlns="http://www.w3.org/2000/svg">
<path d="m8.75 5s-3.75 0-3.75 3.75v26.25h40v-26.25s0-3.75-3.75-3.75h-32.5zm2.5 3.75h27.5c2.5 0 2.5 2.5 2.5 2.5v17.5c0 2.5-2.5 2.5-2.5 2.5h-27.5c-2.5 0-2.5-2.5-2.5-2.5v-17.5c0-2.5 2.5-2.5 2.5-2.5zm-11.25 28.75v2.5s0 5 5 5h40s5 0 5-5v-2.5h-20s0 2.5-2.5 2.5h-5s-2.5 0-2.5-2.5h-20z"/>
</svg>

<?xml version="1.0" encoding="UTF-8" standalone="no"?>
<svg
   xmlns:dc="http://purl.org/dc/elements/1.1/"
   xmlns:cc="http://creativecommons.org/ns#"
   xmlns:rdf="http://www.w3.org/1999/02/22-rdf-syntax-ns#"
   xmlns:svg="http://www.w3.org/2000/svg"
   xmlns="http://www.w3.org/2000/svg"
   id="svg4"
   viewBox="0 0 50 50"
   version="1.1"
   width="50"
   height="50">
  <metadata
     id="metadata10">
    <rdf:RDF>
      <cc:Work
         rdf:about="">
        <dc:format>image/svg+xml</dc:format>
        <dc:type
           rdf:resource="http://purl.org/dc/dcmitype/StillImage" />
        <dc:title></dc:title>
      </cc:Work>
    </rdf:RDF>
  </metadata>
  <defs
     id="defs8" />
  <path
     id="path816"
     d="M 8.75,5 C 8.75,5 5,5 5,8.75 V 35 H 45 V 8.75 C 45,8.75 45,5 41.25,5 Z m 2.5,3.75 h 27.5 c 2.5,0 2.5,2.5 2.5,2.5 v 17.5 c 0,2.5 -2.5,2.5 -2.5,2.5 h -27.5 c -2.5,0 -2.5,-2.5 -2.5,-2.5 v -17.5 c 0,-2.5 2.5,-2.5 2.5,-2.5 z" />
  <path
     id="path957"
     d="M 0,37.5 V 40 c 0,0 0,5 5,5 h 40 c 0,0 5,0 5,-5 V 37.5 H 30 c 0,0 0,2.5 -2.5,2.5 h -5 c 0,0 -2.5,0 -2.5,-2.5 z" />
</svg>
